X: 422
T: Segebadens polska
O: Gotland och Småland
R: Slängpolska
S: efter en upptagning av [[Personer/Johan Hedin]] i Korrö år 2003
Z: Nils L, 2008-09-05
B: Jämför SMUS: [[http://www.smus.se/earkiv/fmk/browselarge.php?lang=sw&katalogid=Hs+11&bildnr=00055|katalog Hs11 bild 55]] (högersidan), [[http://www.smus.se/earkiv/fmk/browselarge.php?lang=sw&katalogid=Ma+9&bildnr=00076|katalog Ma9 bild 76]], [[http://www.smus.se/earkiv/fmk/browselarge.php?lang=sw&katalogid=Ma+11&bildnr=00029|katalog Ma11 bild 29]] (nr 3), [[http://www.smus.se/earkiv/fmk/browselarge.php?lang=sw&katalogid=Ma+17&bildnr=00011|katalog Ma17 bild 11]] (nr 28),  [[http://www.smus.se/earkiv/fmk/browselarge.php?lang=sw&katalogid=M+170&bildnr=00011|katalog M170 bild 11]] (nr 62) ur [[Notböcker/Conrad Sandstens notbok]], [[http://www.smus.se/earkiv/fmk/browselarge.php?lang=sw&katalogid=M+26&bildnr=00033|katalog M26 bild 33]] (nr 178) efter [[Personer/Abraham Hagholm]], [[http://www.smus.se/earkiv/fmk/browselarge.php?lang=sw&katalogid=M+42&bildnr=00030|katalog M42 bild 30]] efter [[Personer/Carl-Johan Johansson]] och [[Personer/P August Johansson]] i [[Platser/Småland]], [[http://www.smus.se/earkiv/fmk/browselarge.php?lang=sw&katalogid=MMD+50&bildnr=00045|katalog MMD50 bild 45]] ur [[Notböcker/Rondahls nothäfte]] ([[Platser/Gotland]]), [[http://www.smus.se/earkiv/fmk/browselarge.php?lang=sw&katalogid=MMD+70&bildnr=00008|katalog MMD70 bild 8]] nr 37, [[http://www.smus.se/earkiv/fmk/browselarge.php?lang=sw&katalogid=MMD+27&bildnr=00003|katalog MMD27 bild 3]] ur [[Notböcker/Johan Lundströms notbok]], [[http://www.smus.se/earkiv/fmk/browselarge.php?lang=sw&katalogid=Ma+18&bildnr=00029|katalog Ma18 bild 29]] nr 88 ur [[Notböcker/Lars Larssons notbok]], [[http://www.smus.se/earkiv/fmk/browselarge.php?lang=en&katalogid=M+36&bildnr=00024|katalog M36 bild 24]] nr 106 ur [[Notböcker/220 Svenska Folkdanser]], [[http://www.smus.se/earkiv/fmk/browselarge.php?lang=sw&katalogid=Ma+4&bildnr=00027|katalog Ma4 bild 27]] nr 97 ur [[Notböcker/Kumlins notsamling]], [[http://www.smus.se/earkiv/fmk/browselarge.php?lang=sw&katalogid=MMD+66&bildnr=00064|katalog MMD66 bild 64]] nr 18, [[http://www.smus.se/earkiv/fmk/browselarge.php?lang=sw&katalogid=Vr+2&bildnr=00076|katalog Vr2 bild 76]], [[http://www.smus.se/earkiv/fmk/browselarge.php?lang=sw&katalogid=MMD+34&bildnr=00011|katalog MMD34 bild 11]] nr 24, [[http://www.smus.se/earkiv/fmk/browselarge.php?lang=sw&katalogid=Ma+13b&bildnr=00017|katalog Ma13b bild 17]] nr 7 efter [[Personer/Johan Eric Blomgren]],  [[http://www.sormlandsmusikarkiv.se/noter/schwalbe/schwalbe_notbok_small.pdf|Sörmlands Musikarkiv]] (pdf) nr 22 ur [[Notböcker/Pontus Schwalbes notbok]], [[http://www.smus.se/earkiv/fmk/browselarge.php?lang=sw&katalogid=%D6g+15&bildnr=00111|SMUS - katalog Ög15 bild 111]], [[http://www.samlingarna.sormlandsspel.se/wp-content/uploads/2013/04/ramelius_carl.pdf|Carl Råmelius notbok]] (pdf) nr 28 sid 9, [[http://www.samlingarna.sormlandsspel.se/wp-content/uploads/2013/04/ramelius_carl.pdf|Carl Råmelius notbok]] (pdf) nr 54 sid 18 (litet annorlunda och med andrastämma)
N: Se även [[Musik/215|+]]
N: Referenser från [[http://www.smus.se/earkiv/fmk/browselarge.php?lang=sw&katalogid=Ma+4&bildnr=00007|smus.se]]: "Polskan benämnes 'General Segebadens polska'. Ingår i Blomgrenska saml. Sexdrega- och Hallandshandskr. Se även Bagge: 73 polskor fr. Gottl. nr 56, Rosenberg: 160 polskor nr 86."
M: 3/4
L: 1/16
K: Bb
B,2BA B2B,2 C2B2 | D2BA B2D2 E2g2 | f2ga (bf)gf (ed)cB | (BA)Bd (cB)AG (FD)EC |
B,2BA B2B,2 C2B2 | D2BA B2D2 E2g2 | f2ga (bf)gf (ed)cB | (BA)Bd c4 B4 ::
F2f=e f2F2 G2f2 | A2f=e f2A2 B2b2 | a2c'=e f2ac d2b2 | (ag)f=e f4 f4 |
(fg)_ag a2f2 e2d2 | (ed)ef e2B2 G2E2 | e2gf g2e2 c2A2 | (BA)Bd (cB)AG (FE)DC |
B,2BA B2B,2 C2B2 | D2BA B2D2 E2g2 | f2ga (bf)gf (ed)cB | (BA)Bd c4 B4 :|
(:musicend:)
(:music:)
